X: 17
T:Country Gardens, Headington (CJS)
M:4/4
L:1/8
Q:1/4=184
R:Hornpipe
A:Headington
P:A(ABCB)2
B:MDT
K:F
P:A
|:F2B2 B2d2|cdcB A2AB|c2F2 G2B2|A3G F4:|
P:B
|:fgfd e2c2|fefd e2c2|f2fe d2g2|e3d c2AB|
  c2fe d2d2|cdcB A2AB|c2F2 G2B2|A3G F4:|
P:C
|:f2fe d2d2|c2cB A2AB|c2F2 G2B2|A3G F4:||
